img/payment/pay.svg

<svg width="46" height="41" viewBox="0 0 46 41" fill="none" xmlns="http://www.w3.org/2000/svg">
<path fill-rule="evenodd" clip-rule="evenodd" d="M8.00679 0.086519C7.4237 0.222153 7.25138 0.512102 6.24639 3.04771L5.30078 5.43379V10.4487C5.30078 15.1947 5.30959 15.4716 5.46511 15.6102C5.69115 15.8118 6.15924 15.7962 6.37891 15.5797C6.55392 15.4072 6.55859 15.2846 6.55859 10.8431V6.28363H13.5215H20.4844V11.2902C20.4844 16.6847 20.479 16.6193 20.9531 16.9466C21.1613 17.0903 21.6125 17.1282 21.8858 17.0249C21.973 16.992 22.8152 16.2901 23.7575 15.4651C24.6998 14.6402 25.5201 13.9462 25.5804 13.9229C25.6408 13.8996 26.3686 14.472 27.1978 15.1949C29.4821 17.1864 29.3476 17.0848 29.7009 17.0848C30.1148 17.0848 30.4857 16.8891 30.6192 16.6003C30.6984 16.429 30.7266 15.0466 30.7266 11.3259V6.28363H37.6895H44.6523V20.9391C44.6523 37.2598 44.7061 35.9342 44.0366 36.1174C43.6287 36.2291 31.8047 36.2425 31.8047 36.1313C31.8047 36.0889 32.1036 36.0354 32.469 36.0123C33.4849 35.9481 34.1174 35.5284 34.5112 34.6577C34.93 33.7316 34.706 32.6766 33.9471 32.001L33.5844 31.678L33.7671 31.4862C34.2483 30.9811 34.4774 29.8151 34.2254 29.1533C34.067 28.7369 33.695 28.2658 33.3472 28.0409C33.1659 27.9237 30.7022 26.8988 27.8722 25.7633C25.0423 24.6278 22.7399 23.686 22.7556 23.6705C22.7714 23.655 23.8877 23.3052 25.2361 22.8932C26.6433 22.4634 27.8356 22.048 28.0343 21.9184C28.7159 21.4739 29.0806 20.4401 28.8511 19.6033C28.7383 19.1922 28.2236 18.5581 27.8471 18.3662C27.2212 18.0473 26.8071 18.0405 25.4258 18.3266C18.2758 19.8075 14.5778 20.4853 12.1552 20.7592C10.6013 20.9348 10.2742 20.9191 10.319 20.6704C10.4901 19.7219 10.3866 19.294 9.90662 18.9644C9.59055 18.7474 5.85027 17.2618 5.61991 17.2618C5.25433 17.2618 4.66864 17.6293 4.49291 17.9688C4.08295 18.7605 0 28.7711 0 28.9844C0 29.2965 0.20116 29.7511 0.426758 29.9491C0.686496 30.1769 4.28501 31.6172 4.72434 31.6691C5.16566 31.7214 5.57094 31.539 5.85512 31.1602C5.96419 31.015 6.11054 30.8961 6.18044 30.8961C6.41484 30.8961 7.82755 31.5966 8.38853 31.9911C8.69391 32.2058 9.34052 32.8037 9.82522 33.3196C10.31 33.8355 10.9762 34.4585 11.3055 34.704C11.8562 35.1147 12.9803 35.7287 13.7461 36.0371C14.0284 36.1509 13.7217 36.1662 10.7457 36.187C6.42715 36.2173 6.56237 36.2728 6.55994 34.4694C6.55877 33.6442 6.53155 33.4503 6.39292 33.2815C6.18844 33.0327 5.73778 33.0127 5.48164 33.2411C5.31722 33.3879 5.30087 33.5117 5.30168 34.6061C5.30249 35.6873 5.32432 35.8557 5.51659 36.2627C5.63437 36.5119 5.86859 36.8194 6.03714 36.9461C6.72265 37.4614 6.55428 37.4476 12.1568 37.4476H17.3115L21.7359 39.2238C25.8763 40.8861 26.1966 41 26.7282 41C27.9822 41 29.0195 40.0239 29.0195 38.8439V38.5343L29.5361 38.4758C30.173 38.4037 30.9386 38.0482 31.1961 37.705L31.3892 37.4476L37.7737 37.447C42.103 37.4468 44.2739 37.4155 44.5176 37.35C44.9903 37.223 45.739 36.4735 45.8896 35.9765C45.975 35.6945 46 32.2096 46 20.5682V5.52445L45.0216 3.06489C44.4834 1.71209 43.9545 0.512367 43.8463 0.39869C43.7379 0.285101 43.473 0.148404 43.2575 0.0949297C42.7539 -0.0299917 39.825 -0.0322935 39.4633 0.0920081C38.9584 0.265446 38.881 0.989034 39.3413 1.23179C39.449 1.28854 40.1937 1.32573 41.2218 1.32573H42.9243L43.3512 2.41027C43.586 3.00672 43.91 3.82097 44.0711 4.21964C44.2323 4.61831 44.3414 4.96686 44.3136 4.99431C44.2858 5.02175 41.1978 5.04415 37.4515 5.04415H30.6401L30.5927 4.84495C30.5666 4.73544 30.3712 3.90871 30.1586 3.00787L29.7717 1.37L32.4235 1.34653C35.0003 1.32369 35.0811 1.31767 35.2818 1.13184C35.6474 0.793463 35.5175 0.263852 35.0276 0.0955494C34.6907 -0.0201645 8.5029 -0.0289292 8.00679 0.086519ZM21.4727 1.37779C21.4727 1.49554 20.6589 4.89232 20.6132 4.96509C20.5548 5.05814 6.91797 5.07487 6.91797 4.98191C6.91797 4.92552 7.93464 2.30651 8.22555 1.61346L8.3463 1.32573H14.9095C18.5192 1.32573 21.4727 1.3491 21.4727 1.37779ZM28.8465 3.14067C29.0773 4.11455 29.2487 4.94128 29.2273 4.97775C29.1701 5.07594 22.0117 5.06062 22.0117 4.96235C22.0117 4.91728 22.1937 4.1041 22.416 3.1551C22.6384 2.2062 22.8203 1.40576 22.8203 1.37646C22.8203 1.34715 24.0818 1.3337 25.6236 1.34662L28.4268 1.37L28.8465 3.14067ZM29.4688 10.8539C29.4688 15.1325 29.459 15.4165 29.317 15.3028C29.2335 15.236 28.5766 14.6685 27.857 14.0418C27.1376 13.415 26.4185 12.8035 26.2591 12.6828C25.9155 12.4227 25.4387 12.3942 25.0988 12.6137C24.8884 12.7496 22.847 14.5028 22.124 15.1685L21.832 15.4373V10.8605V6.28363H25.6504H29.4688V10.8539ZM7.48371 19.3246C8.87602 19.8797 9.07826 19.985 9.04816 20.1392C9.00387 20.3669 4.93763 30.2069 4.84572 30.3089C4.75004 30.4151 1.33283 29.0369 1.36616 28.9056C1.38072 28.8484 2.34268 26.5037 3.50391 23.6952C5.1582 19.694 5.64443 18.5992 5.75 18.6378C5.82412 18.6648 6.60432 18.9739 7.48371 19.3246ZM27.2174 19.5168C27.7234 19.7746 27.7323 20.6229 27.2317 20.8869C27.1296 20.9408 25.6092 21.4233 23.8532 21.9592C22.0972 22.495 20.5616 22.9778 20.4408 23.032C20.1684 23.1544 20.0347 23.5118 20.1441 23.8257C20.2449 24.1152 19.8953 23.9625 26.8184 26.739C29.882 27.9677 32.4969 29.0478 32.6293 29.1392C33.1409 29.4927 33.1479 30.3236 32.6426 30.7153C32.135 31.1086 32.1318 31.1077 27.7641 29.3516C25.5171 28.4481 23.591 27.7088 23.484 27.7088C22.9624 27.7088 22.6767 28.4102 23.0524 28.768C23.1471 28.8582 25.3876 29.7974 28.0312 30.8552C31.3889 32.1987 32.9153 32.8518 33.0948 33.0217C33.2806 33.1976 33.3646 33.3775 33.3982 33.6717C33.4411 34.0467 33.4199 34.1029 33.1278 34.3908C32.831 34.6833 32.6474 34.7465 32.209 34.7074C32.1102 34.6985 29.8334 33.8107 27.1495 32.7343C21.8714 30.6176 21.9629 30.6437 21.6638 31.1689C21.4697 31.5096 21.5932 31.8368 21.9907 32.0351C22.1752 32.1272 23.8423 32.8095 25.6953 33.5513C30.0915 35.3112 30.1426 35.3345 30.3154 35.6639C30.6892 36.376 30.1876 37.182 29.3707 37.182C29.2643 37.182 27.3415 36.4449 25.0981 35.5441C22.8546 34.6433 20.9649 33.9062 20.8986 33.9062C20.8323 33.9062 20.6716 33.9888 20.5414 34.0897C20.2525 34.3137 20.2176 34.775 20.4723 35.0022C20.5646 35.0844 22.0908 35.7338 23.8639 36.4454C25.6371 37.1568 27.1962 37.8136 27.3285 37.9047C27.6144 38.1015 27.7981 38.5881 27.7195 38.9405C27.6885 39.0796 27.5453 39.3047 27.4012 39.4407C26.8976 39.9161 26.9656 39.9372 20.0352 37.1494C16.5515 35.748 13.4586 34.4806 13.1621 34.333C12.4154 33.9611 11.9123 33.5812 11.2305 32.874C9.52254 31.1027 8.69229 30.4817 7.26018 29.9045L6.56911 29.626L6.70387 29.3093C6.77799 29.1351 7.40645 27.6181 8.10049 25.9382C8.79445 24.2582 9.44033 22.7027 9.53584 22.4814L9.70941 22.0791L10.5521 22.1154C11.6126 22.161 12.631 22.0475 15.6777 21.5441C17.8478 21.1856 23.6909 20.0389 25.6953 19.5781C26.6385 19.3614 26.8924 19.3512 27.2174 19.5168Z" fill="url(#paint0_linear_1710_4969)"/>
<path fill-rule="evenodd" clip-rule="evenodd" d="M8.00679 0.086519C7.4237 0.222153 7.25138 0.512102 6.24639 3.04771L5.30078 5.43379V10.4487C5.30078 15.1947 5.30959 15.4716 5.46511 15.6102C5.69115 15.8118 6.15924 15.7962 6.37891 15.5797C6.55392 15.4072 6.55859 15.2846 6.55859 10.8431V6.28363H13.5215H20.4844V11.2902C20.4844 16.6847 20.479 16.6193 20.9531 16.9466C21.1613 17.0903 21.6125 17.1282 21.8858 17.0249C21.973 16.992 22.8152 16.2901 23.7575 15.4651C24.6998 14.6402 25.5201 13.9462 25.5804 13.9229C25.6408 13.8996 26.3686 14.472 27.1978 15.1949C29.4821 17.1864 29.3476 17.0848 29.7009 17.0848C30.1148 17.0848 30.4857 16.8891 30.6192 16.6003C30.6984 16.429 30.7266 15.0466 30.7266 11.3259V6.28363H37.6895H44.6523V20.9391C44.6523 37.2598 44.7061 35.9342 44.0366 36.1174C43.6287 36.2291 31.8047 36.2425 31.8047 36.1313C31.8047 36.0889 32.1036 36.0354 32.469 36.0123C33.4849 35.9481 34.1174 35.5284 34.5112 34.6577C34.93 33.7316 34.706 32.6766 33.9471 32.001L33.5844 31.678L33.7671 31.4862C34.2483 30.9811 34.4774 29.8151 34.2254 29.1533C34.067 28.7369 33.695 28.2658 33.3472 28.0409C33.1659 27.9237 30.7022 26.8988 27.8722 25.7633C25.0423 24.6278 22.7399 23.686 22.7556 23.6705C22.7714 23.655 23.8877 23.3052 25.2361 22.8932C26.6433 22.4634 27.8356 22.048 28.0343 21.9184C28.7159 21.4739 29.0806 20.4401 28.8511 19.6033C28.7383 19.1922 28.2236 18.5581 27.8471 18.3662C27.2212 18.0473 26.8071 18.0405 25.4258 18.3266C18.2758 19.8075 14.5778 20.4853 12.1552 20.7592C10.6013 20.9348 10.2742 20.9191 10.319 20.6704C10.4901 19.7219 10.3866 19.294 9.90662 18.9644C9.59055 18.7474 5.85027 17.2618 5.61991 17.2618C5.25433 17.2618 4.66864 17.6293 4.49291 17.9688C4.08295 18.7605 0 28.7711 0 28.9844C0 29.2965 0.20116 29.7511 0.426758 29.9491C0.686496 30.1769 4.28501 31.6172 4.72434 31.6691C5.16566 31.7214 5.57094 31.539 5.85512 31.1602C5.96419 31.015 6.11054 30.8961 6.18044 30.8961C6.41484 30.8961 7.82755 31.5966 8.38853 31.9911C8.69391 32.2058 9.34052 32.8037 9.82522 33.3196C10.31 33.8355 10.9762 34.4585 11.3055 34.704C11.8562 35.1147 12.9803 35.7287 13.7461 36.0371C14.0284 36.1509 13.7217 36.1662 10.7457 36.187C6.42715 36.2173 6.56237 36.2728 6.55994 34.4694C6.55877 33.6442 6.53155 33.4503 6.39292 33.2815C6.18844 33.0327 5.73778 33.0127 5.48164 33.2411C5.31722 33.3879 5.30087 33.5117 5.30168 34.6061C5.30249 35.6873 5.32432 35.8557 5.51659 36.2627C5.63437 36.5119 5.86859 36.8194 6.03714 36.9461C6.72265 37.4614 6.55428 37.4476 12.1568 37.4476H17.3115L21.7359 39.2238C25.8763 40.8861 26.1966 41 26.7282 41C27.9822 41 29.0195 40.0239 29.0195 38.8439V38.5343L29.5361 38.4758C30.173 38.4037 30.9386 38.0482 31.1961 37.705L31.3892 37.4476L37.7737 37.447C42.103 37.4468 44.2739 37.4155 44.5176 37.35C44.9903 37.223 45.739 36.4735 45.8896 35.9765C45.975 35.6945 46 32.2096 46 20.5682V5.52445L45.0216 3.06489C44.4834 1.71209 43.9545 0.512367 43.8463 0.39869C43.7379 0.285101 43.473 0.148404 43.2575 0.0949297C42.7539 -0.0299917 39.825 -0.0322935 39.4633 0.0920081C38.9584 0.265446 38.881 0.989034 39.3413 1.23179C39.449 1.28854 40.1937 1.32573 41.2218 1.32573H42.9243L43.3512 2.41027C43.586 3.00672 43.91 3.82097 44.0711 4.21964C44.2323 4.61831 44.3414 4.96686 44.3136 4.99431C44.2858 5.02175 41.1978 5.04415 37.4515 5.04415H30.6401L30.5927 4.84495C30.5666 4.73544 30.3712 3.90871 30.1586 3.00787L29.7717 1.37L32.4235 1.34653C35.0003 1.32369 35.0811 1.31767 35.2818 1.13184C35.6474 0.793463 35.5175 0.263852 35.0276 0.0955494C34.6907 -0.0201645 8.5029 -0.0289292 8.00679 0.086519ZM21.4727 1.37779C21.4727 1.49554 20.6589 4.89232 20.6132 4.96509C20.5548 5.05814 6.91797 5.07487 6.91797 4.98191C6.91797 4.92552 7.93464 2.30651 8.22555 1.61346L8.3463 1.32573H14.9095C18.5192 1.32573 21.4727 1.3491 21.4727 1.37779ZM28.8465 3.14067C29.0773 4.11455 29.2487 4.94128 29.2273 4.97775C29.1701 5.07594 22.0117 5.06062 22.0117 4.96235C22.0117 4.91728 22.1937 4.1041 22.416 3.1551C22.6384 2.2062 22.8203 1.40576 22.8203 1.37646C22.8203 1.34715 24.0818 1.3337 25.6236 1.34662L28.4268 1.37L28.8465 3.14067ZM29.4688 10.8539C29.4688 15.1325 29.459 15.4165 29.317 15.3028C29.2335 15.236 28.5766 14.6685 27.857 14.0418C27.1376 13.415 26.4185 12.8035 26.2591 12.6828C25.9155 12.4227 25.4387 12.3942 25.0988 12.6137C24.8884 12.7496 22.847 14.5028 22.124 15.1685L21.832 15.4373V10.8605V6.28363H25.6504H29.4688V10.8539ZM7.48371 19.3246C8.87602 19.8797 9.07826 19.985 9.04816 20.1392C9.00387 20.3669 4.93763 30.2069 4.84572 30.3089C4.75004 30.4151 1.33283 29.0369 1.36616 28.9056C1.38072 28.8484 2.34268 26.5037 3.50391 23.6952C5.1582 19.694 5.64443 18.5992 5.75 18.6378C5.82412 18.6648 6.60432 18.9739 7.48371 19.3246ZM27.2174 19.5168C27.7234 19.7746 27.7323 20.6229 27.2317 20.8869C27.1296 20.9408 25.6092 21.4233 23.8532 21.9592C22.0972 22.495 20.5616 22.9778 20.4408 23.032C20.1684 23.1544 20.0347 23.5118 20.1441 23.8257C20.2449 24.1152 19.8953 23.9625 26.8184 26.739C29.882 27.9677 32.4969 29.0478 32.6293 29.1392C33.1409 29.4927 33.1479 30.3236 32.6426 30.7153C32.135 31.1086 32.1318 31.1077 27.7641 29.3516C25.5171 28.4481 23.591 27.7088 23.484 27.7088C22.9624 27.7088 22.6767 28.4102 23.0524 28.768C23.1471 28.8582 25.3876 29.7974 28.0312 30.8552C31.3889 32.1987 32.9153 32.8518 33.0948 33.0217C33.2806 33.1976 33.3646 33.3775 33.3982 33.6717C33.4411 34.0467 33.4199 34.1029 33.1278 34.3908C32.831 34.6833 32.6474 34.7465 32.209 34.7074C32.1102 34.6985 29.8334 33.8107 27.1495 32.7343C21.8714 30.6176 21.9629 30.6437 21.6638 31.1689C21.4697 31.5096 21.5932 31.8368 21.9907 32.0351C22.1752 32.1272 23.8423 32.8095 25.6953 33.5513C30.0915 35.3112 30.1426 35.3345 30.3154 35.6639C30.6892 36.376 30.1876 37.182 29.3707 37.182C29.2643 37.182 27.3415 36.4449 25.0981 35.5441C22.8546 34.6433 20.9649 33.9062 20.8986 33.9062C20.8323 33.9062 20.6716 33.9888 20.5414 34.0897C20.2525 34.3137 20.2176 34.775 20.4723 35.0022C20.5646 35.0844 22.0908 35.7338 23.8639 36.4454C25.6371 37.1568 27.1962 37.8136 27.3285 37.9047C27.6144 38.1015 27.7981 38.5881 27.7195 38.9405C27.6885 39.0796 27.5453 39.3047 27.4012 39.4407C26.8976 39.9161 26.9656 39.9372 20.0352 37.1494C16.5515 35.748 13.4586 34.4806 13.1621 34.333C12.4154 33.9611 11.9123 33.5812 11.2305 32.874C9.52254 31.1027 8.69229 30.4817 7.26018 29.9045L6.56911 29.626L6.70387 29.3093C6.77799 29.1351 7.40645 27.6181 8.10049 25.9382C8.79445 24.2582 9.44033 22.7027 9.53584 22.4814L9.70941 22.0791L10.5521 22.1154C11.6126 22.161 12.631 22.0475 15.6777 21.5441C17.8478 21.1856 23.6909 20.0389 25.6953 19.5781C26.6385 19.3614 26.8924 19.3512 27.2174 19.5168Z" fill="#FEFEFE"/>
<defs>
<linearGradient id="paint0_linear_1710_4969" x1="0" y1="0" x2="41.5214" y2="46.8133" gradientUnits="userSpaceOnUse">
<stop stop-color="#0ABD92"/>
<stop offset="1" stop-color="#009DB8"/>
</linearGradient>
</defs>
</svg>

<svg width="46" height="41" fill="none" xmlns="http://www.w3.org/2000/svg"><path fill-rule="evenodd" clip-rule="evenodd" d="M8.007.087c-.583.135-.756.425-1.76 2.96L5.3 5.435v5.015c0 4.746.009 5.023.164 5.161.226.202.694.186.914-.03.175-.173.18-.295.18-4.737v-4.56h13.925v5.007c0 5.395-.005 5.33.47 5.657.207.143.659.181.932.078.087-.033.93-.735 1.872-1.56.942-.825 1.762-1.519 1.822-1.542.06-.023.789.549 1.618 1.272 2.284 1.991 2.15 1.89 2.503 1.89.414 0 .785-.196.918-.485.08-.171.108-1.553.108-5.274V6.284h13.925v14.655c0 16.32.054 14.995-.615 15.178-.408.112-12.232.126-12.232.014 0-.042.299-.096.664-.119 1.016-.064 1.648-.484 2.042-1.354A2.268 2.268 0 0033.947 32l-.363-.323.183-.192c.481-.505.71-1.67.458-2.333-.158-.416-.53-.887-.878-1.112-.181-.117-2.645-1.142-5.475-2.278-2.83-1.135-5.132-2.077-5.116-2.093.015-.015 1.132-.365 2.48-.777 1.407-.43 2.6-.845 2.798-.975.682-.444 1.047-1.478.817-2.315-.113-.41-.627-1.045-1.004-1.237-.626-.319-1.04-.325-2.421-.04-7.15 1.482-10.848 2.16-13.27 2.433-1.555.176-1.882.16-1.837-.089.171-.948.068-1.376-.412-1.706-.316-.217-4.057-1.702-4.287-1.702-.366 0-.951.367-1.127.707C4.083 18.76 0 28.77 0 28.984c0 .313.201.767.427.965.26.228 3.858 1.668 4.297 1.72.442.052.847-.13 1.131-.509.11-.145.256-.264.325-.264.235 0 1.648.7 2.209 1.095.305.215.952.813 1.436 1.329.485.516 1.151 1.139 1.48 1.384.551.41 1.675 1.025 2.441 1.333.282.114-.024.13-3 .15-4.319.03-4.184.086-4.186-1.718-.001-.825-.028-1.019-.167-1.188-.205-.248-.655-.268-.911-.04-.165.147-.181.27-.18 1.365 0 1.081.022 1.25.215 1.657.117.249.352.556.52.683.686.515.517.502 6.12.502h5.154l4.425 1.776c4.14 1.662 4.46 1.776 4.992 1.776 1.254 0 2.291-.976 2.291-2.156v-.31l.517-.058c.637-.072 1.403-.428 1.66-.771l.193-.257 6.385-.001c4.329 0 6.5-.032 6.744-.097.472-.127 1.221-.877 1.372-1.373.085-.282.11-3.767.11-15.409V5.524l-.978-2.46C44.483 1.713 43.955.513 43.846.4c-.108-.114-.373-.25-.588-.304-.504-.125-3.433-.127-3.795-.003-.505.173-.582.897-.122 1.14.108.057.853.094 1.88.094h1.703l.427 1.084c.235.597.559 1.411.72 1.81.161.398.27.747.243.774-.028.028-3.116.05-6.862.05H30.64l-.047-.199-.434-1.837-.387-1.638 2.651-.023c2.577-.023 2.658-.03 2.859-.215.365-.339.236-.868-.254-1.036C34.69-.02 8.503-.03 8.007.086zm13.466 1.29c0 .119-.814 3.515-.86 3.588-.058.093-13.695.11-13.695.017 0-.056 1.017-2.675 1.308-3.369l.12-.287h6.563c3.61 0 6.564.023 6.564.052zm7.373 1.764c.231.974.403 1.8.381 1.837-.057.098-7.215.083-7.215-.016 0-.045.182-.858.404-1.807.222-.949.404-1.75.404-1.779 0-.029 1.262-.042 2.804-.03l2.803.024.42 1.77zm.623 7.713c0 4.279-.01 4.563-.152 4.449-.084-.067-.74-.635-1.46-1.261a59.866 59.866 0 00-1.598-1.36c-.343-.26-.82-.288-1.16-.068-.21.136-2.252 1.889-2.975 2.554l-.292.27V6.283h7.637v4.57zm-21.985 8.47c1.392.556 1.594.661 1.564.815-.044.228-4.11 10.068-4.202 10.17-.096.106-3.513-1.272-3.48-1.403.015-.058.977-2.402 2.138-5.21 1.654-4.002 2.14-5.097 2.246-5.058.074.027.854.336 1.734.687zm19.733.193c.506.258.515 1.106.015 1.37-.102.054-1.623.536-3.379 1.072s-3.291 1.019-3.412 1.073c-.273.122-.406.48-.297.794.1.29-.249.136 6.674 2.913 3.064 1.229 5.679 2.309 5.811 2.4.512.354.519 1.185.014 1.576-.508.394-.511.393-4.879-1.363-2.247-.904-4.173-1.643-4.28-1.643-.522 0-.807.701-.432 1.059.095.09 2.336 1.03 4.98 2.087 3.357 1.344 4.883 1.997 5.063 2.167.186.176.27.355.303.65.043.375.022.43-.27.719-.297.292-.48.355-.919.316-.099-.008-2.376-.896-5.06-1.973-5.278-2.116-5.186-2.09-5.485-1.565-.194.34-.07.668.327.866.184.092 1.851.775 3.704 1.516 4.396 1.76 4.448 1.783 4.62 2.113.374.712-.127 1.518-.944 1.518-.107 0-2.03-.737-4.273-1.638-2.243-.9-4.133-1.638-4.2-1.638-.066 0-.226.083-.357.184-.288.224-.323.685-.069.912.093.082 1.619.732 3.392 1.443 1.773.712 3.332 1.369 3.464 1.46.286.197.47.683.392 1.035-.031.14-.175.365-.319.5-.503.476-.435.497-7.366-2.29-3.483-1.402-6.576-2.67-6.873-2.817-.747-.372-1.25-.752-1.932-1.459-1.707-1.771-2.538-2.392-3.97-2.97l-.69-.278.134-.317c.074-.174.702-1.69 1.396-3.37.694-1.68 1.34-3.236 1.436-3.458l.173-.402.843.036c1.06.046 2.079-.067 5.126-.57 2.17-.36 8.013-1.506 10.017-1.967.944-.217 1.197-.227 1.522-.061z" fill="url(#paint0_linear_1710_4969)"/><path fill-rule="evenodd" clip-rule="evenodd" d="M8.007.087c-.583.135-.756.425-1.76 2.96L5.3 5.435v5.015c0 4.746.009 5.023.164 5.161.226.202.694.186.914-.03.175-.173.18-.295.18-4.737v-4.56h13.925v5.007c0 5.395-.005 5.33.47 5.657.207.143.659.181.932.078.087-.033.93-.735 1.872-1.56.942-.825 1.762-1.519 1.822-1.542.06-.023.789.549 1.618 1.272 2.284 1.991 2.15 1.89 2.503 1.89.414 0 .785-.196.918-.485.08-.171.108-1.553.108-5.274V6.284h13.925v14.655c0 16.32.054 14.995-.615 15.178-.408.112-12.232.126-12.232.014 0-.042.299-.096.664-.119 1.016-.064 1.648-.484 2.042-1.354A2.268 2.268 0 0033.947 32l-.363-.323.183-.192c.481-.505.71-1.67.458-2.333-.158-.416-.53-.887-.878-1.112-.181-.117-2.645-1.142-5.475-2.278-2.83-1.135-5.132-2.077-5.116-2.093.015-.015 1.132-.365 2.48-.777 1.407-.43 2.6-.845 2.798-.975.682-.444 1.047-1.478.817-2.315-.113-.41-.627-1.045-1.004-1.237-.626-.319-1.04-.325-2.421-.04-7.15 1.482-10.848 2.16-13.27 2.433-1.555.176-1.882.16-1.837-.089.171-.948.068-1.376-.412-1.706-.316-.217-4.057-1.702-4.287-1.702-.366 0-.951.367-1.127.707C4.083 18.76 0 28.77 0 28.984c0 .313.201.767.427.965.26.228 3.858 1.668 4.297 1.72.442.052.847-.13 1.131-.509.11-.145.256-.264.325-.264.235 0 1.648.7 2.209 1.095.305.215.952.813 1.436 1.329.485.516 1.151 1.139 1.48 1.384.551.41 1.675 1.025 2.441 1.333.282.114-.024.13-3 .15-4.319.03-4.184.086-4.186-1.718-.001-.825-.028-1.019-.167-1.188-.205-.248-.655-.268-.911-.04-.165.147-.181.27-.18 1.365 0 1.081.022 1.25.215 1.657.117.249.352.556.52.683.686.515.517.502 6.12.502h5.154l4.425 1.776c4.14 1.662 4.46 1.776 4.992 1.776 1.254 0 2.291-.976 2.291-2.156v-.31l.517-.058c.637-.072 1.403-.428 1.66-.771l.193-.257 6.385-.001c4.329 0 6.5-.032 6.744-.097.472-.127 1.221-.877 1.372-1.373.085-.282.11-3.767.11-15.409V5.524l-.978-2.46C44.483 1.713 43.955.513 43.846.4c-.108-.114-.373-.25-.588-.304-.504-.125-3.433-.127-3.795-.003-.505.173-.582.897-.122 1.14.108.057.853.094 1.88.094h1.703l.427 1.084c.235.597.559 1.411.72 1.81.161.398.27.747.243.774-.028.028-3.116.05-6.862.05H30.64l-.047-.199-.434-1.837-.387-1.638 2.651-.023c2.577-.023 2.658-.03 2.859-.215.365-.339.236-.868-.254-1.036C34.69-.02 8.503-.03 8.007.086zm13.466 1.29c0 .119-.814 3.515-.86 3.588-.058.093-13.695.11-13.695.017 0-.056 1.017-2.675 1.308-3.369l.12-.287h6.563c3.61 0 6.564.023 6.564.052zm7.373 1.764c.231.974.403 1.8.381 1.837-.057.098-7.215.083-7.215-.016 0-.045.182-.858.404-1.807.222-.949.404-1.75.404-1.779 0-.029 1.262-.042 2.804-.03l2.803.024.42 1.77zm.623 7.713c0 4.279-.01 4.563-.152 4.449-.084-.067-.74-.635-1.46-1.261a59.866 59.866 0 00-1.598-1.36c-.343-.26-.82-.288-1.16-.068-.21.136-2.252 1.889-2.975 2.554l-.292.27V6.283h7.637v4.57zm-21.985 8.47c1.392.556 1.594.661 1.564.815-.044.228-4.11 10.068-4.202 10.17-.096.106-3.513-1.272-3.48-1.403.015-.058.977-2.402 2.138-5.21 1.654-4.002 2.14-5.097 2.246-5.058.074.027.854.336 1.734.687zm19.733.193c.506.258.515 1.106.015 1.37-.102.054-1.623.536-3.379 1.072s-3.291 1.019-3.412 1.073c-.273.122-.406.48-.297.794.1.29-.249.136 6.674 2.913 3.064 1.229 5.679 2.309 5.811 2.4.512.354.519 1.185.014 1.576-.508.394-.511.393-4.879-1.363-2.247-.904-4.173-1.643-4.28-1.643-.522 0-.807.701-.432 1.059.095.09 2.336 1.03 4.98 2.087 3.357 1.344 4.883 1.997 5.063 2.167.186.176.27.355.303.65.043.375.022.43-.27.719-.297.292-.48.355-.919.316-.099-.008-2.376-.896-5.06-1.973-5.278-2.116-5.186-2.09-5.485-1.565-.194.34-.07.668.327.866.184.092 1.851.775 3.704 1.516 4.396 1.76 4.448 1.783 4.62 2.113.374.712-.127 1.518-.944 1.518-.107 0-2.03-.737-4.273-1.638-2.243-.9-4.133-1.638-4.2-1.638-.066 0-.226.083-.357.184-.288.224-.323.685-.069.912.093.082 1.619.732 3.392 1.443 1.773.712 3.332 1.369 3.464 1.46.286.197.47.683.392 1.035-.031.14-.175.365-.319.5-.503.476-.435.497-7.366-2.29-3.483-1.402-6.576-2.67-6.873-2.817-.747-.372-1.25-.752-1.932-1.459-1.707-1.771-2.538-2.392-3.97-2.97l-.69-.278.134-.317c.074-.174.702-1.69 1.396-3.37.694-1.68 1.34-3.236 1.436-3.458l.173-.402.843.036c1.06.046 2.079-.067 5.126-.57 2.17-.36 8.013-1.506 10.017-1.967.944-.217 1.197-.227 1.522-.061z" fill="#FEFEFE"/><defs><linearGradient id="paint0_linear_1710_4969" x1="0" y1="0" x2="41.521" y2="46.813" gradientUnits="userSpaceOnUse"><stop stop-color="#0ABD92"/><stop offset="1" stop-color="#009DB8"/></linearGradient></defs></svg>
